svg/baby_female_0306m_outline.svg

<?xml version="1.0" encoding="UTF-8" standalone="no"?>
<!-- Created with Inkscape (http://www.inkscape.org/) -->
<svg id="svg8" xmlns:rdf="http://www.w3.org/1999/02/22-rdf-syntax-ns#" xmlns="http://www.w3.org/2000/svg" xmlns:osb="http://www.openswatchbook.org/uri/2009/osb" height="48" width="48" version="1.1" xmlns:cc="http://creativecommons.org/ns#" viewBox="0 0 12.7 12.7" xmlns:dc="http://purl.org/dc/elements/1.1/">
 <title id="title4753">UIO-icon</title>
 <metadata id="metadata5">
  <rdf:RDF>
   <cc:Work rdf:about="">
    <dc:format>image/svg+xml</dc:format>
    <dc:type rdf:resource="http://purl.org/dc/dcmitype/StillImage"/>
    <dc:title>UIO-icon</dc:title>
    <dc:creator>
     <cc:Agent>
      <dc:title>Joaquín Urbano</dc:title>
     </cc:Agent>
    </dc:creator>
    <dc:rights>
     <cc:Agent>
      <dc:title>GPL</dc:title>
     </cc:Agent>
    </dc:rights>
   </cc:Work>
  </rdf:RDF>
 </metadata>
 <g id="layer1" transform="translate(0,-284.3)">
  <path id="circle5040" d="m20.648 3.998c-1.064 0.0469-2.223 0.456-2.939 1.4571-0.987 1.6688 0.073 2.5066 1.555 3.0215a14.273 12.398 0 0 0 -8.858 7.9394 4.1874 4.1874 0 0 0 -0.9099 -0.104 4.1874 4.1874 0 0 0 -4.1875 4.188 4.1874 4.1874 0 0 0 4.1875 4.188 4.1874 4.1874 0 0 0 1.1559 -0.165 14.273 12.398 0 0 0 13.342 8.034 14.273 12.398 0 0 0 8.111 -2.221 6.8534 6.8534 0 0 0 5.036 2.219 6.8534 6.8534 0 0 0 6.853 -6.854 6.8534 6.8534 0 0 0 -1.414 -4.156 4.1874 4.1874 0 0 0 0.137 -1.045 4.1874 4.1874 0 0 0 -4.188 -4.188 4.1874 4.1874 0 0 0 -0.929 0.11 14.273 12.398 0 0 0 -13.606 -8.6622 14.273 12.398 0 0 0 -1.072 0.039c-0.878-0.6466-4.992-0.4592-3.234-2.0508 1.541-1.2653 3.715-0.6413 0.863 0.795 4.322-0.9921 2.44-2.648 0.097-2.545zm3.676 4.2696c7.302 0.0037 12.095 5.1134 12.963 8.7774 1.806-0.626 4.841 0.345 4.906 3.486 0 0.172-0.016 0.34-0.043 0.504a6.8534 6.8534 0 0 0 -5.009 -2.187 6.8534 6.8534 0 0 0 -6.852 6.853 6.8534 6.8534 0 0 0 1.455 4.211c-2.304 1.434-4.905 2.246-7.094 2.123-6.984-0.004-12.131-3.644-13.705-8.119-2.115 0.728-4.71-0.2-5.1149-3.373 0.0699-2.363 2.5165-4.518 4.8729-3.461 1.636-4.755 6.364-8.807 13.621-8.8144zm-4.31 8.7444a1.5082 1.5082 0 0 0 -1.51 1.508 1.5082 1.5082 0 0 0 1.51 1.507 1.5082 1.5082 0 0 0 1.507 -1.507 1.5082 1.5082 0 0 0 -1.507 -1.508zm8 0a1.5082 1.5082 0 0 0 -1.51 1.508 1.5082 1.5082 0 0 0 1.51 1.507 1.5082 1.5082 0 0 0 1.507 -1.507 1.5082 1.5082 0 0 0 -1.507 -1.508zm9.127 2.271a6.4179 6.4179 0 0 1 4.886 2.268 6.4179 6.4179 0 0 1 0.006 0.006 6.4179 6.4179 0 0 1 0.344 0.445 6.4179 6.4179 0 0 1 1.184 3.699 6.4179 6.4179 0 0 1 -6.418 6.418 6.4179 6.4179 0 0 1 -4.663 -2.014 6.4179 6.4179 0 0 1 -0.025 -0.029 6.4179 6.4179 0 0 1 -0.34 -0.39l-0.002 0.002a6.4179 6.4179 0 0 1 -1.386 -3.987 6.4179 6.4179 0 0 1 6.414 -6.418zm2.033 1.697l-0.623 0.622 0.976 0.978-1.64 1.641c-0.666-0.489-1.465-0.754-2.264-0.754-2.042 0-3.728 1.643-3.728 3.685 0 2.086 1.686 3.729 3.728 3.729s3.727-1.642 3.727-3.729c0-0.843-0.312-1.687-0.844-2.353l1.644-1.598 0.932 0.932 0.621-0.621-0.932-0.932 0.799-0.844-0.621-0.621-0.799 0.797-0.976-0.932zm-20.008 2.665c-0.247 0.022-0.47 0.264-0.437 0.658 0.203 1.978 2.508 3.509 5.285 3.511 2.778 0 5.085-1.532 5.289-3.511-1.171 1.653-3.002 2.734-5.289 2.781-2.214-0.001-4.062-1.207-4.262-2.781-0.067-0.484-0.339-0.681-0.586-0.658zm16.457 0.666c1.554 0 2.84 1.286 2.84 2.839 0 1.598-1.286 2.885-2.84 2.885-1.553 0-2.842-1.287-2.842-2.885 0-1.553 1.289-2.839 2.842-2.839zm-27.756 10.785c-0.8281 0-1.4624 0.274-1.9043 0.824-0.4384 0.55-0.6582 1.357-0.6582 2.418v1.398c0.0104 1.02 0.2354 1.802 0.6738 2.348s1.0703 0.82 1.8985 0.82c0.8385 0 1.4752-0.279 1.9101-0.836 0.4349-0.556 0.6519-1.359 0.6519-2.41v-1.398c-0.01-1.02-0.233-1.801-0.6714-2.344-0.4384-0.546-1.0723-0.82-1.9004-0.82zm5.9958 0c-0.462 0-0.887 0.088-1.273 0.265-0.383 0.178-0.681 0.426-0.897 0.743-0.212 0.313-0.318 0.667-0.318 1.064h1.508c0-0.254 0.098-0.459 0.293-0.615 0.195-0.16 0.436-0.241 0.724-0.241 0.321 0 0.571 0.086 0.752 0.256 0.185 0.171 0.278 0.409 0.278 0.715 0 0.317-0.093 0.571-0.278 0.762-0.184 0.191-0.468 0.287-0.851 0.287h-0.803v1.18h0.799c0.835 0 1.252 0.38 1.252 1.138 0 0.314-0.103 0.565-0.309 0.756-0.202 0.188-0.481 0.282-0.84 0.282-0.313 0-0.577-0.091-0.793-0.272-0.212-0.181-0.318-0.414-0.318-0.699h-1.508c0 0.657 0.239 1.188 0.719 1.588 0.484 0.4 1.105 0.599 1.863 0.599 0.811 0 1.463-0.204 1.953-0.611 0.495-0.407 0.741-0.948 0.741-1.623 0-0.418-0.106-0.78-0.319-1.086-0.208-0.306-0.527-0.534-0.955-0.688 0.345-0.156 0.624-0.381 0.836-0.673 0.212-0.293 0.319-0.613 0.319-0.961 0-0.675-0.228-1.203-0.684-1.586-0.456-0.386-1.087-0.58-1.891-0.58zm10.434 0c-0.828 0-1.463 0.274-1.904 0.824-0.439 0.55-0.659 1.357-0.659 2.418v1.398c0.011 1.02 0.236 1.802 0.674 2.348 0.439 0.546 1.072 0.82 1.901 0.82 0.838 0 1.475-0.279 1.91-0.836 0.435-0.556 0.652-1.359 0.652-2.41v-1.398c-0.01-1.02-0.235-1.801-0.674-2.344-0.438-0.546-1.072-0.82-1.9-0.82zm7.437 0.027c-0.769 0.004-1.444 0.177-2.029 0.525-0.581 0.345-1.029 0.834-1.342 1.467-0.309 0.63-0.465 1.357-0.465 2.182v0.543c0 0.929 0.246 1.672 0.737 2.228 0.494 0.557 1.141 0.836 1.941 0.836 0.494 0 0.937-0.111 1.326-0.334 0.394-0.222 0.696-0.533 0.909-0.933 0.215-0.4 0.324-0.848 0.324-1.342 0-0.773-0.196-1.396-0.586-1.869s-0.915-0.709-1.576-0.709c-0.616 0-1.126 0.204-1.53 0.615 0.084-0.612 0.332-1.091 0.746-1.436 0.418-0.344 0.969-0.52 1.651-0.531h0.146v-1.242h-0.252zm2.459 0.078v7.6h1.567v-2.078l-0.156-3.58 2.044 5.658h1.077l2.05-5.664-0.156 3.586v2.078h1.57v-7.6h-2.056l-1.942 5.512-1.951-5.512h-2.047zm-26.326 1.117c0.3653 0 0.6342 0.143 0.8047 0.432 0.174 0.285 0.2597 0.743 0.2597 1.373v1.807c-0.0069 0.595-0.0923 1.037-0.2558 1.326-0.1636 0.289-0.43 0.432-0.7988 0.432-0.3724 0-0.644-0.15-0.8145-0.45-0.167-0.302-0.25-0.763-0.25-1.383v-1.847c0.0104-0.581 0.1006-1.006 0.2676-1.278 0.1705-0.274 0.4322-0.412 0.7871-0.412zm16.43 0c0.365 0 0.634 0.143 0.805 0.432 0.174 0.285 0.261 0.743 0.261 1.373v1.807c-0.007 0.595-0.092 1.037-0.256 1.326-0.163 0.289-0.43 0.432-0.798 0.432-0.373 0-0.644-0.15-0.815-0.45-0.167-0.302-0.25-0.763-0.25-1.383v-1.847c0.011-0.581 0.099-1.006 0.266-1.278 0.17-0.274 0.432-0.412 0.787-0.412zm6.217 2.61c0.341 0 0.612 0.127 0.814 0.381s0.303 0.587 0.303 1.002c0 0.407-0.101 0.738-0.303 0.996-0.198 0.254-0.459 0.381-0.783 0.381-0.358 0-0.636-0.141-0.834-0.422-0.198-0.286-0.299-0.681-0.299-1.186v-0.459c0.094-0.209 0.241-0.375 0.44-0.5 0.198-0.129 0.418-0.193 0.662-0.193zm-12.856 0.01v1.216h2.94v-1.216h-2.94z" fill-rule="evenodd" transform="matrix(.26458 0 0 .26458 0 284.3)" fill="#333"/>
 </g>
</svg>

<svg width="48" height="48" viewBox="0 0 48 48" fill="none" xmlns="http://www.w3.org/2000/svg">
<path fill-rule="evenodd" clip-rule="evenodd" d="M20.6478 3.99799C19.5838 4.04489 18.4248 4.45399 17.7088 5.45508C16.7218 7.12386 17.7818 7.96164 19.2638 8.47654C17.1808 9.11436 15.2966 10.1634 13.7596 11.541C12.2225 12.9187 11.0745 14.5874 10.4059 16.4158C10.1073 16.348 9.80218 16.3131 9.49599 16.3118C8.94604 16.3118 8.40148 16.4201 7.89339 16.6306C7.38531 16.8411 6.92366 17.1496 6.53481 17.5385C6.14596 17.9274 5.83753 18.389 5.62712 18.8972C5.41672 19.4053 5.30846 19.9498 5.30854 20.4998C5.30846 21.0497 5.41672 21.5943 5.62712 22.1024C5.83753 22.6105 6.14596 23.0722 6.53481 23.4611C6.92366 23.85 7.38531 24.1585 7.89339 24.369C8.40148 24.5794 8.94604 24.6877 9.49599 24.6877C9.8871 24.687 10.2762 24.6314 10.6519 24.5227C11.6727 26.8807 13.4963 28.9126 15.8798 30.3478C18.2633 31.7831 21.0935 32.5535 23.9937 32.5566C26.8943 32.5494 29.7236 31.7747 32.1046 30.3357C32.7451 31.0335 33.5233 31.5909 34.3901 31.9728C35.2568 32.3547 36.1934 32.5529 37.1405 32.5546C38.0405 32.5546 38.9317 32.3773 39.7632 32.0328C40.5947 31.6883 41.3502 31.1834 41.9865 30.547C42.6229 29.9105 43.1276 29.155 43.472 28.3235C43.8163 27.4919 43.9935 26.6007 43.9935 25.7007C43.9906 24.1978 43.4937 22.7376 42.5795 21.5448C42.669 21.2036 42.715 20.8525 42.7165 20.4998C42.7166 19.9498 42.6083 19.4052 42.3978 18.897C42.1874 18.3889 41.8789 17.9272 41.49 17.5383C41.1011 17.1494 40.6394 16.8409 40.1313 16.6305C39.6231 16.42 39.0785 16.3118 38.5285 16.3118C38.2157 16.3137 37.9041 16.3506 37.5995 16.4218C36.6856 13.9095 34.8739 11.7155 32.4275 10.158C29.981 8.60044 27.0269 7.76042 23.9937 7.75975C23.6359 7.76107 23.2784 7.77408 22.9217 7.79875C22.0437 7.15216 17.9298 7.33955 19.6878 5.74797C21.2287 4.48269 23.4027 5.10668 20.5508 6.54296C24.8727 5.55088 22.9907 3.895 20.6478 3.99799ZM24.3237 8.26754C31.6256 8.27124 36.4186 13.3809 37.2865 17.0448C39.0925 16.4188 42.1275 17.3898 42.1925 20.5308C42.1925 20.7028 42.1765 20.8708 42.1495 21.0348C41.5093 20.3461 40.7342 19.7966 39.8725 19.4204C39.0107 19.0441 38.0808 18.8492 37.1405 18.8478C35.3232 18.8482 33.5805 19.5703 32.2956 20.8555C31.0106 22.1406 30.2887 23.8834 30.2886 25.7007C30.2911 27.2272 30.8032 28.7092 31.7436 29.9117C29.4396 31.3457 26.8387 32.1576 24.6497 32.0346C17.6658 32.0306 12.5189 28.3907 10.9449 23.9157C8.8299 24.6437 6.23493 23.7157 5.83004 20.5428C5.89994 18.1798 8.34651 16.0248 10.7029 17.0818C12.3389 12.3269 17.0668 8.27494 24.3237 8.26754ZM20.0138 17.0118C19.8156 17.0116 19.6193 17.0504 19.4361 17.1261C19.2529 17.2018 19.0865 17.3128 18.9462 17.4529C18.806 17.5929 18.6947 17.7592 18.6188 17.9423C18.5429 18.1254 18.5038 18.3216 18.5038 18.5198C18.5039 18.7179 18.5431 18.9141 18.6191 19.097C18.6951 19.28 18.8064 19.4462 18.9466 19.5861C19.0868 19.7261 19.2532 19.837 19.4363 19.9126C19.6194 19.9882 19.8157 20.027 20.0138 20.0268C20.4133 20.0265 20.7965 19.8676 21.079 19.5851C21.3615 19.3025 21.5204 18.9194 21.5207 18.5198C21.5207 18.1201 21.3619 17.7367 21.0794 17.4539C20.7968 17.1712 20.4135 17.0121 20.0138 17.0118ZM28.0137 17.0118C27.8155 17.0116 27.6192 17.0504 27.436 17.1261C27.2528 17.2018 27.0864 17.3128 26.9461 17.4529C26.8059 17.5929 26.6946 17.7592 26.6187 17.9423C26.5428 18.1254 26.5037 18.3216 26.5037 18.5198C26.5038 18.7179 26.543 18.9141 26.619 19.097C26.695 19.28 26.8063 19.4462 26.9465 19.5861C27.0867 19.7261 27.2531 19.837 27.4362 19.9126C27.6193 19.9882 27.8156 20.027 28.0137 20.0268C28.4132 20.0265 28.7964 19.8676 29.0789 19.5851C29.3615 19.3025 29.5203 18.9194 29.5206 18.5198C29.5206 18.1201 29.3618 17.7367 29.0793 17.4539C28.7967 17.1712 28.4134 17.0121 28.0137 17.0118ZM37.1405 19.2828C38.0706 19.2842 38.9893 19.4878 39.833 19.8794C40.6766 20.271 41.4251 20.8413 42.0265 21.5508C42.0285 21.5528 42.0305 21.5548 42.0325 21.5568C42.1536 21.7 42.2684 21.8485 42.3765 22.0018C43.1437 23.0829 43.5573 24.375 43.5605 25.7007C43.5605 26.5435 43.3945 27.3781 43.072 28.1568C42.7494 28.9354 42.2767 29.6429 41.6807 30.2389C41.0848 30.8349 40.3773 31.3076 39.5986 31.6301C38.8199 31.9527 37.9854 32.1187 37.1425 32.1186C36.2692 32.1179 35.4051 31.9389 34.6034 31.5926C33.8016 31.2463 33.0789 30.74 32.4796 30.1047C32.4712 30.095 32.4629 30.0854 32.4546 30.0757C32.3361 29.9503 32.2227 29.8202 32.1146 29.6857L32.1126 29.6877C31.2143 28.553 30.7259 27.148 30.7266 25.7007C30.7266 23.9993 31.4022 22.3674 32.6049 21.164C33.8077 19.9605 35.4391 19.2838 37.1405 19.2828ZM39.1735 20.9798L38.5505 21.6018L39.5265 22.5798L37.8865 24.2207C37.2205 23.7317 36.4216 23.4667 35.6226 23.4667C33.5806 23.4667 31.8946 25.1097 31.8946 27.1517C31.8946 29.2377 33.5806 30.8807 35.6226 30.8807C37.6645 30.8807 39.3495 29.2387 39.3495 27.1517C39.3495 26.3087 39.0375 25.4647 38.5055 24.7987L40.1495 23.2008L41.0815 24.1327L41.7025 23.5117L40.7705 22.5798L41.5695 21.7358L40.9485 21.1148L40.1495 21.9118L39.1735 20.9798ZM19.1658 23.6447C18.9188 23.6667 18.6958 23.9087 18.7288 24.3027C18.9318 26.2807 21.2367 27.8117 24.0137 27.8137C26.7917 27.8137 29.0986 26.2817 29.3026 24.3027C28.1317 25.9557 26.3007 27.0367 24.0137 27.0837C21.7997 27.0827 19.9518 25.8767 19.7518 24.3027C19.6848 23.8187 19.4128 23.6217 19.1658 23.6447ZM35.6226 24.3107C37.1765 24.3107 38.4625 25.5967 38.4625 27.1497C38.4625 28.7477 37.1765 30.0347 35.6226 30.0347C34.0696 30.0347 32.7806 28.7477 32.7806 27.1497C32.7806 25.5967 34.0696 24.3107 35.6226 24.3107ZM7.86691 35.0956C7.03882 35.0956 6.40453 35.3696 5.96263 35.9196C5.52424 36.4696 5.30444 37.2766 5.30444 38.3376V39.7355C5.31484 40.7555 5.53984 41.5375 5.97823 42.0835C6.41663 42.6295 7.04852 42.9035 7.87671 42.9035C8.7152 42.9035 9.35189 42.6245 9.78679 42.0675C10.2217 41.5115 10.4387 40.7085 10.4387 39.6576V38.2596C10.4287 37.2396 10.2057 36.4586 9.76729 35.9156C9.32889 35.3696 8.695 35.0956 7.86691 35.0956ZM13.8626 35.0956C13.4006 35.0956 12.9756 35.1836 12.5897 35.3606C12.2067 35.5386 11.9087 35.7866 11.6927 36.1036C11.4807 36.4166 11.3747 36.7706 11.3747 37.1676H12.8826C12.8826 36.9136 12.9806 36.7086 13.1756 36.5526C13.3706 36.3926 13.6116 36.3116 13.8996 36.3116C14.2206 36.3116 14.4706 36.3976 14.6516 36.5676C14.8366 36.7386 14.9296 36.9766 14.9296 37.2826C14.9296 37.5996 14.8366 37.8536 14.6516 38.0446C14.4676 38.2356 14.1836 38.3316 13.8006 38.3316H12.9976V39.5116H13.7966C14.6316 39.5116 15.0486 39.8915 15.0486 40.6495C15.0486 40.9635 14.9456 41.2145 14.7396 41.4055C14.5376 41.5935 14.2586 41.6875 13.8996 41.6875C13.5866 41.6875 13.3226 41.5965 13.1066 41.4155C12.8946 41.2345 12.7886 41.0015 12.7886 40.7165H11.2807C11.2807 41.3735 11.5197 41.9045 11.9997 42.3045C12.4837 42.7045 13.1046 42.9035 13.8626 42.9035C14.6736 42.9035 15.3256 42.6995 15.8156 42.2925C16.3106 41.8855 16.5566 41.3445 16.5566 40.6695C16.5566 40.2515 16.4506 39.8895 16.2376 39.5835C16.0296 39.2776 15.7106 39.0496 15.2826 38.8956C15.6276 38.7396 15.9066 38.5146 16.1186 38.2226C16.3306 37.9296 16.4376 37.6096 16.4376 37.2616C16.4376 36.5866 16.2096 36.0586 15.7536 35.6756C15.2976 35.2896 14.6666 35.0956 13.8626 35.0956ZM24.2965 35.0956C23.4685 35.0956 22.8335 35.3696 22.3925 35.9196C21.9535 36.4696 21.7335 37.2766 21.7335 38.3376V39.7355C21.7445 40.7555 21.9695 41.5375 22.4075 42.0835C22.8465 42.6295 23.4795 42.9035 24.3085 42.9035C25.1465 42.9035 25.7835 42.6245 26.2185 42.0675C26.6535 41.5115 26.8705 40.7085 26.8705 39.6576V38.2596C26.8605 37.2396 26.6355 36.4586 26.1965 35.9156C25.7585 35.3696 25.1245 35.0956 24.2965 35.0956ZM31.7334 35.1226C30.9644 35.1266 30.2894 35.2996 29.7044 35.6476C29.1234 35.9926 28.6755 36.4816 28.3625 37.1146C28.0535 37.7446 27.8975 38.4716 27.8975 39.2966V39.8395C27.8975 40.7685 28.1435 41.5115 28.6345 42.0675C29.1284 42.6245 29.7754 42.9035 30.5754 42.9035C31.0694 42.9035 31.5124 42.7925 31.9014 42.5695C32.2954 42.3475 32.5974 42.0365 32.8104 41.6365C33.0254 41.2365 33.1344 40.7885 33.1344 40.2945C33.1344 39.5216 32.9384 38.8986 32.5484 38.4256C32.1584 37.9526 31.6334 37.7166 30.9724 37.7166C30.3564 37.7166 29.8464 37.9206 29.4424 38.3316C29.5264 37.7196 29.7744 37.2406 30.1884 36.8956C30.6064 36.5516 31.1574 36.3756 31.8394 36.3646H31.9854V35.1226H31.7334ZM34.1924 35.2006V42.8005H35.7594V40.7225L35.6034 37.1426L37.6473 42.8005H38.7243L40.7743 37.1366L40.6183 40.7225V42.8005H42.1883V35.2006H40.1323L38.1903 40.7125L36.2394 35.2006H34.1924ZM7.86671 36.3176C8.23201 36.3176 8.5009 36.4606 8.6714 36.7496C8.8454 37.0346 8.9311 37.4926 8.9311 38.1226V39.9295C8.9242 40.5245 8.8388 40.9665 8.6753 41.2555C8.5117 41.5445 8.24531 41.6875 7.87651 41.6875C7.50412 41.6875 7.23252 41.5375 7.06202 41.2375C6.89502 40.9355 6.81202 40.4745 6.81202 39.8545V38.0076C6.82242 37.4266 6.91262 37.0016 7.07962 36.7296C7.25012 36.4556 7.51182 36.3176 7.86671 36.3176ZM24.2965 36.3176C24.6615 36.3176 24.9305 36.4606 25.1015 36.7496C25.2755 37.0346 25.3625 37.4926 25.3625 38.1226V39.9295C25.3555 40.5245 25.2705 40.9665 25.1065 41.2555C24.9435 41.5445 24.6765 41.6875 24.3085 41.6875C23.9355 41.6875 23.6645 41.5375 23.4935 41.2375C23.3265 40.9355 23.2435 40.4745 23.2435 39.8545V38.0076C23.2545 37.4266 23.3425 37.0016 23.5095 36.7296C23.6795 36.4556 23.9415 36.3176 24.2965 36.3176ZM30.5134 38.9276C30.8544 38.9276 31.1254 39.0546 31.3274 39.3086C31.5294 39.5625 31.6304 39.8955 31.6304 40.3105C31.6304 40.7175 31.5294 41.0485 31.3274 41.3065C31.1294 41.5605 30.8684 41.6875 30.5444 41.6875C30.1864 41.6875 29.9084 41.5465 29.7104 41.2655C29.5124 40.9795 29.4114 40.5845 29.4114 40.0795V39.6205C29.5054 39.4116 29.6524 39.2456 29.8514 39.1206C30.0494 38.9916 30.2694 38.9276 30.5134 38.9276ZM17.6576 38.9376V40.1535H20.5976V38.9376H17.6576Z" fill="#333333"/>
</svg>
